wp-expand-tabs-free/admin/img/tabs-alignment/horizontal-top/horizontal-right.svg

<svg width="120" height="92" viewBox="0 0 120 92" fill="none" xmlns="http://www.w3.org/2000/svg">
<rect x="1" y="1" width="118" height="90" rx="3" fill="white"/>
<path d="M80 26H81V25V18C81 17.5003 81.0021 17.2262 81.0277 17.036C81.028 17.0335 81.0284 17.0311 81.0287 17.0287C81.0311 17.0284 81.0335 17.028 81.036 17.0277C81.2262 17.0021 81.5003 17 82 17H98C98.4997 17 98.7738 17.0021 98.964 17.0277C98.9665 17.028 98.9689 17.0284 98.9713 17.0287C98.9716 17.0311 98.972 17.0335 98.9723 17.036C98.9979 17.2262 99 17.5003 99 18V74C99 74.4997 98.9979 74.7738 98.9723 74.964C98.972 74.9665 98.9716 74.9689 98.9713 74.9713C98.9689 74.9716 98.9665 74.972 98.964 74.9723C98.7738 74.9979 98.4997 75 98 75H22C21.5003 75 21.2262 74.9979 21.036 74.9723C21.0335 74.972 21.0311 74.9716 21.0287 74.9713C21.0284 74.9689 21.028 74.9665 21.0277 74.964C21.0021 74.7738 21 74.4997 21 74V27C21 26.5003 21.0021 26.2262 21.0277 26.036C21.028 26.0335 21.0284 26.0311 21.0287 26.0287C21.0311 26.0284 21.0335 26.028 21.036 26.0277C21.2262 26.0021 21.5003 26 22 26H80Z" fill="white" stroke="#8796A1" stroke-width="2"/>
<path d="M34 18C34 17.0572 34 16.5858 34.2929 16.2929C34.5858 16 35.0572 16 36 16H51C51.9428 16 52.4142 16 52.7071 16.2929C53 16.5858 53 17.0572 53 18V25C53 25.9428 53 26.4142 52.7071 26.7071C52.4142 27 51.9428 27 51 27H36C35.0572 27 34.5858 27 34.2929 26.7071C34 26.4142 34 25.9428 34 25V18Z" fill="#8796A1"/>
<path d="M57 18C57 17.0572 57 16.5858 57.2929 16.2929C57.5858 16 58.0572 16 59 16H74C74.9428 16 75.4142 16 75.7071 16.2929C76 16.5858 76 17.0572 76 18V25C76 25.9428 76 26.4142 75.7071 26.7071C75.4142 27 74.9428 27 74 27H59C58.0572 27 57.5858 27 57.2929 26.7071C57 26.4142 57 25.9428 57 25V18Z" fill="#8796A1"/>
<rect x="1" y="1" width="118" height="90" rx="3" stroke="#CCCCCC" stroke-width="2"/>
</svg>

<svg xmlns="http://www.w3.org/2000/svg" width="120" height="92" fill="none"><g fill="#fff"><rect x="1" y="1" width="118" height="90" rx="3"/><path d="M80 26h1v-1-7l.028-.964c.199-.034.473-.036.972-.036h16l.964.028c.034.198.036.473.036.972v56l-.028.964c-.199.034-.473.036-.972.036H22c-.5 0-.774-.002-.964-.028C21.002 74.774 21 74.5 21 74V27l.028-.964c.198-.034.473-.036.972-.036h58z" stroke="#8796a1" stroke-width="2"/></g><path d="M34 18c0-.943 0-1.414.293-1.707S35.057 16 36 16h15c.943 0 1.414 0 1.707.293S53 17.057 53 18v7c0 .943 0 1.414-.293 1.707S51.943 27 51 27H36c-.943 0-1.414 0-1.707-.293S34 25.943 34 25v-7zm23 0c0-.943 0-1.414.293-1.707S58.057 16 59 16h15c.943 0 1.414 0 1.707.293S76 17.057 76 18v7c0 .943 0 1.414-.293 1.707S74.943 27 74 27H59c-.943 0-1.414 0-1.707-.293S57 25.943 57 25v-7z" fill="#8796a1"/><rect x="1" y="1" width="118" height="90" rx="3" stroke="#ccc" stroke-width="2"/></svg>
